X:1
T:Questa che'l cor m'accende
T:Agostino?? Agostini
T:Questa che'l cor m'accende
C:Agostino?? Agostini
%%score [ 1 2 3 4 ]
L:1/8
Q:1/4=90
M:4/4
K:C
V:1 alto1 nm="Soprano" snm="S"
V:2 alto nm="Alto" snm="A"
V:3 tenor nm="Tenor" snm="T"
V:4 bass nm="Bass" snm="B"
V:1
 z8 | A8 | A4 _B4 | A4 G4 | d8- | d4 ^c4 | z4 A4 | B4 B2 c2- | cBAG A4 | ^G4 z2 E2- | E2 ^F2 G4 | %11
w: |Que-|sta che'l|cor m'ac-|cen-|* de,|Col|cor mi fug-||ge e|_ con gl'oc-|
 A4 ^F4 | A8 | ^F4 z2 A2- | A2 A2 c2 c2- | c2 B2 A4- | A2 G2 G4 | A4 ^F4 | z2 G2 A4 | A4 A4- | %20
w: chi mi|pren-|de, Va-|* ga de la|_ mia pe-|* na Ogn' hor|si fa|per che|con dol-|
 A4 ^G4 | A4 A4 | _B6 A2 | G8 | E4 c4- | c2 BA B4 | c4 G4 | A4 B4 | c6 c2 | B4 z2 G2 | A4 _B4 | %31
w: * ci|sguar- di,Al|suo de-|sio|mi me-||na, Mo-|stran- do|dar- mi|quel che|sem- pre e|
 A8 | A4 z2 ^F2 | G4 A4 | _B6 AG | A4 A4 | A8 | ^F4 z2 A2 | c3 c _B2 G2 | A4 A4 | z2 A2 A2 G2 | %41
w: tar-|do, Co-|si con-|su- * *|* mo et|ar-|do, Se-|guen- do chi mi|gui- da|e chi m'of-|
 F8 | E4 A4 | _B2 G2 A4- | A8 | ^F8 |] %46
w: fen-|de, e|chi m'of- fen-||de.|
V:2
 z8 | E8 | ^F4 G4 | C4 E4 | F8 | E8 | z4 ^F4 | G4 G4 | F3 E/D/ C3 D | E4 ^C2 C2- | C2 D2 E4 | %11
w: |Que-|sta che'l|cor m'ac-|cen-|de,|Col|cor mi|fug- * * * *|* ge e|_ con gl'oc-|
 F2 E2 D4- | D2 ^CB, C4 | D4 z2 F2- | F2 F2 G4 | G4 E4 | E6 E2 | C4 D4 | E4 z2 F2 | F4 F4 | E6 E2 | %21
w: chi mi pren-||de, Va-|* ga de|la mia|pe- na Ogn'|hor si|fa per|che con|dol- ci|
 E4 ^F4 | G6 D2 | D4 D4 | C2 D2 E2 C2 | D8 | E8 | F2 A4 ^G2 | A6 A2 | ^G4 z2 E2 | E2 ^F2 G4- | %31
w: sguar- di,Al|suo de-|sio mi|me- * * *||na,|Mo- stran- do|dar- mi|quel che|sem- pre e tar-|
 G2 ^FE F4 | E4 z2 D2 | D4 F4 | F4 G4 | F8 | E8 | z2 D2 F3 F | G2 F2 D3 E | F8 | E4 E4 | D2 C4 C2 | %42
w: |do, Co-|si con-|su- mo et|ar-|do,|Se- guen- do|chi mi gui- *||da e chi|m'of- fen- de,|
 C4 A,2 F2 | E2 D2 D4- | D2 ^CB, C4 | D8 |] %46
w: e chi m'of-|fen- * *||de.|
V:3
 z8 | ^C8 | D4 D4 | A,4 C4 | _B,4 A,2 G,2 | A,4 A,4 | z2 A,4 D2- | D2 B,2 EDCB, | A,G, A,3 B,CA, | %9
w: |Que-|sta che'l|cor m'ac-|cen- * *|* de,|Col cor|_ mi fug- * * *||
 B,4 A,2 A,2- | A,2 A,2 C4 | C4 B,4 | E8 | A,4 z2 D2- | D2 D2 E4 | D4 C4 | B,6 C2 | A,4 A,4 | %18
w: * ge e|_ con gl'oc-|chi mi|pren-|de, Va-|* ga de|la mia|pe- na Ogn'|hor si|
 C4 z2 C2 | C4 D4 | B,6 B,2 | ^C4 D4 | D6 A,2 | B,4 B,4 | G,8 | G,4 G,4- | G,4 C4 | C4 E4- | %28
w: fa per|che con|dol- ci|sguar- di,Al|suo de-|sio mi|me-|na, Mo-|* stran-|do dar-|
 E4 E4 | E6 B,2 | ^C4 D4 | D8 | ^C4 z2 A,2 | B,4 C4 | D4 G,4 | D8- | D4 ^C4 | z2 A,2 D3 D | %38
w: * mi|quel che|sem- pre e|tar-|do, Co-|si con-|su- mo et|ar-|* do,|Se- guen- do|
 C2 A,2 _B,4 | A,4 z2 D2- | D2 C4 B,2 | A,8 | G,4 F,4 | G,4 D,4 | E,8 | D,8 |] %46
w: chi mi gui-|da e|_ chi m'of-|fen-|de, e|chi m'of-|fen-|de.|
V:4
 z8 | A,8 | D,4 G,4 | F,4 C,4 | D,8 | A,,8 | z4 D,4 | G,4 E,4 | F,8 | E,4 z2 A,,2- | A,,2 D,2 C,4 | %11
w: |Que-|sta che'l|cor m'ac-|cen-|de,|Col|cor mi|fug-|ge e|_ con gl'oc-|
 A,,4 B,,4 | A,,8 | D,4 z2 D,2- | D,2 D,2 C,4 | G,,4 A,,4 | E,6 E,2 | F,4 D,4 | C,4 z2 F,2 | %19
w: chi mi|pren-|de, Va-|* ga de|la mia|pe- na Ogn'|hor si|fa per|
 F,4 D,4 | E,6 E,2 | A,,4 D,4 | G,,6 ^F,,2 | G,,4 B,,4 | C,8 | G,,8 | C,8 | F,4 E,4 | A,,6 A,,2 | %29
w: che con|dol- ci|sguar- di,Al|suo de-|sio mi|me-|na,|Mo-|stran- do|dar- mi|
 E,4 z2 E,2 | A,,4 G,,4 | D,8 | A,,4 z2 D,2 | G,4 F,4 | _B,,4 _E,4 | D,2 E,2 F,2 G,2 | A,8 | D,8 | %38
w: quel che|sem- pre e|tar-|do, Co-|si con-|su- mo et|ar- * * *||do,|
 z8 | D,8 | A,,4 E,4 | F,8 | C,4 D,4 | _B,4 A,4 | A,,8 | D,8 |] %46
w: |e|chi m'of-|fen-|de, e|chi m'of-|fen-|de.|

